X: 1
T: William Irwin's Modal
R: hornpipe
M: 4/4
L: 1/8
K: Edor
|:EFGE FGAF| B2B2 AFDF|G2EG F2DF|EFGE AFDF|
EFGE FGAF| B2B2 AFDF|G2EF GFED|1 B,2E2E4:|2 B,2E2E2e2|
|:edBd edBd|eded egfe| dAFA dAFA|BcdB AFDF|
EFGE FGAF| B2B2 AFDF|G2EF GFED|1 B,2E2E2e2:|2 B,2E2E4| 